Gruvbox-Plus-Dark/panel/16/battery-good.svg

<svg width="16" height="16" version="1.1" xmlns="http://www.w3.org/2000/svg">
  <defs>
    <style type="text/css">.ColorScheme-Text { color:#ebdbb2; } .ColorScheme-Highlight { color:#458588; }</style>
  </defs>
  <path class="ColorScheme-Text" d="m6 1v1h-3v12c0 0.55 0.446 1 1 1h8c0.554 0 1-0.45 1-1v-12h-3v-1z" fill="currentColor" opacity=".3"/>
  <path class="ColorScheme-Text" d="m3 6v8c0 0.55 0.446 1 1 1h8c0.554 0 1-0.45 1-1v-8z" fill="currentColor"/>
</svg>

<svg xmlns="http://www.w3.org/2000/svg" width="16" height="16" version="1.1">
 <defs>
  <style id="current-color-scheme" type="text/css">
   .ColorScheme-Text { color:#ebdbb2; } .ColorScheme-Highlight { color:#458588; }
  </style>
 </defs>
 <path style="opacity:0.3;fill:currentColor" class="ColorScheme-Text" d="M 6,1 V 2 H 3 V 14 C 3,14.55 3.446,15 4,15 H 12 C 12.554,15 13,14.55 13,14 V 2 H 10 V 1 Z"/>
 <path style="fill:currentColor" class="ColorScheme-Text" d="M 3,6 V 14 C 3,14.55 3.446,15 4,15 H 12 C 12.554,15 13,14.55 13,14 V 6 Z"/>
</svg>
